**kern	**kern	**kern	**kern	**harm	**kern	**kern	**kern
=1-	=1-	=1-	=1-	=1-	=1-	=1-	=1-
1r	1r	1r	2r	.	=1-	E#	M4/4
1r	1r	1r	4r	.	=1-	E#	M4/4
1r	1r	1r	4B#/	.	=1-	E#	M4/4
=2	=2	=2	=2	=2	=2	=2	=2
[1E#	1G##	1B#	4e#/	I	=2	E#	M4/4
[1E#	1G##	1B#	4g##/	I	=2	E#	M4/4
[1E#	1G##	1B#	4b#\	I	=2	E#	M4/4
[1E#	1G##	1B#	8.g##/L	I	=2	E#	M4/4
[1E#	1G##	1B#	16e#/Jk	I	=2	E#	M4/4
=3	=3	=3	=3	=3	=3	=3	=3
1E#]	2A#\	2c##/	4ee#\	IV64	=3	E#	M4/4
1E#]	2A#\	2c##/	8.cc##\L	IV64	=3	E#	M4/4
1E#]	2A#\	2c##/	16a#\Jk	IV64	=3	E#	M4/4
1E#]	2G##\	2B#/	4b#\	I	=3	E#	M4/4
1E#]	2G##\	2B#/	8.g##/L	I	=3	E#	M4/4
1E#]	2G##\	2B#/	16e#/Jk	I	=3	E#	M4/4
=4	=4	=4	=4	=4	=4	=4	=4
[1BB#	4F##\	4A#/	4d##/	V7	=4	E#	M4/4
[1BB#	4E#\	4G##/	4e#/	I64	=4	E#	M4/4
[1BB#	4D##\	4f##/	4a#\	V7	=4	E#	M4/4
[1BB#	8.E#\L	4e#/	4g##/	I64	=4	E#	M4/4
[1BB#	16G##\Jk	4e#/	4g##/	I64	=4	E#	M4/4
=5	=5	=5	=5	=5	=5	=5	=5
2BB#/]	2B#\	4.d##/	4.f##/	V7	=5	E#	M4/4
2BB#/]	2B#\	8e#/	16a#/LL	V7	=5	E#	M4/4
2BB#/]	2B#\	8e#/	16g##/JJ	V7	=5	E#	M4/4
2r	2r	4d##'/	4f##'/	V7	=5	E#	M4/4
2r	2r	4r	4B#/	V7	=5	E#	M4/4
=6	=6	=6	=6	=6	=6	=6	=6
[1EE#	1G##	1B#	4e#/	I	=6	E#	M4/4
[1EE#	1G##	1B#	4g##/	I	=6	E#	M4/4
[1EE#	1G##	1B#	4b#\	I	=6	E#	M4/4
[1EE#	1G##	1B#	8.g##/L	I	=6	E#	M4/4
[1EE#	1G##	1B#	16e#/Jk	I	=6	E#	M4/4
=7	=7	=7	=7	=7	=7	=7	=7
1EE#]	2A#\	2c##/	4ee#\	IV64	=7	E#	M4/4
1EE#]	2A#\	2c##/	8.cc##\L	IV64	=7	E#	M4/4
1EE#]	2A#\	2c##/	16a#\Jk	IV64	=7	E#	M4/4
1EE#]	2G##\	4B#/	4b#\	I	=7	E#	M4/4
1EE#]	2G##\	4e#/	8.g##/L	I	=7	E#	M4/4
1EE#]	2G##\	4e#/	16e#/Jk	I	=7	E#	M4/4
=8	=8	=8	=8	=8	=8	=8	=8
2AA#/	2F##\	2e#/	2cc##\	ii6	=8	E#	M4/4
2AA##/	2F##\	[2e#/	8c##/L	V65/V	=8	E#	M4/4
2AA##/	2F##\	[2e#/	8d##/	V65/V	=8	E#	M4/4
2AA##/	2F##\	[2e#/	8e#/	V65/V	=8	E#	M4/4
2AA##/	2F##\	[2e#/	8f##/J	V65/V	=8	E#	M4/4
=9	=9	=9	=9	=9	=9	=9	=9
1BB#	4E#\	2e#/]	2g##/	C64	=9	E#	M4/4
1BB#	4G##\	2e#/]	2g##/	C64	=9	E#	M4/4
1BB#	2A#\	2d##/	8.f##/L	V7	=9	E#	M4/4
1BB#	2A#\	2d##/	16e#/Jk	V7	=9	E#	M4/4
1BB#	2A#\	2d##/	8.f##/L	V7	=9	E#	M4/4
1BB#	2A#\	2d##/	16g##/Jk	V7	=9	E#	M4/4
=10	=10	=10	=10	=10	=10	=10	=10
4E#\	4G##\	4e#/	4e#/	I	=10	E#	M4/4
4E#\	4G##\	4B#/	4r	I	=10	E#	M4/4
4E#\	4G##\	4B#/	4r	I	=10	E#	M4/4
4E#\	4G##\	4B#/	8r	I	=10	E#	M4/4
4E#\	4G##\	4B#/	16r	I	=10	E#	M4/4
4E#\	4G##\	4B#/	16b#\	I	=10	E#	M4/4
=11	=11	=11	=11	=11	=11	=11	=11
4E#\	4A#\	4d##/	8.f##/L	V7	=11	E#	M4/4
4E#\	4A#\	4d##/	16B#/Jk	V7	=11	E#	M4/4
4E#\	4A#\	4d##/	8.a#/L	V7	=11	E#	M4/4
4E#\	4A#\	4d##/	16g##/Jk	V7	=11	E#	M4/4
4E#\	4A#\	4d##/	4f##'/	V7	=11	E#	M4/4
4E#\	4A#\	4d##/	8r	V7	=11	E#	M4/4
4E#\	4A#\	4d##/	16r	V7	=11	E#	M4/4
4E#\	4A#\	4d##/	16b#\	V7	=11	E#	M4/4
=12	=12	=12	=12	=12	=12	=12	=12
4E#\	4G##\	4e#/	8.e#/L	I	=12	E#	M4/4
4E#\	4G##\	4e#/	16B#/Jk	I	=12	E#	M4/4
4E#\	4G##\	4B#/	8.g##/L	I	=12	E#	M4/4
4E#\	4G##\	4B#/	16f##/Jk	I	=12	E#	M4/4
4E#\	4G##\	4B#/	4e#'/	I	=12	E#	M4/4
4E#\	4G##\	4B#/	8r	I	=12	E#	M4/4
4E#\	4G##\	4B#/	16r	I	=12	E#	M4/4
4E#\	4G##\	4B#/	16b#\	I	=12	E#	M4/4
=13	=13	=13	=13	=13	=13	=13	=13
4E#\	4A#\	4d##/	8.f##/L	V7	=13	E#	M4/4
4E#\	4A#\	4d##/	16B#/Jk	V7	=13	E#	M4/4
4E#\	4A#\	4d##/	8.a#/L	V7	=13	E#	M4/4
4E#\	4A#\	4d##/	16g##/Jk	V7	=13	E#	M4/4
4E#\	4A#\	4d##/	4f##'/	V7	=13	E#	M4/4
4E#\	4A#\	4d##/	8r	V7	=13	E#	M4/4
4E#\	4A#\	4d##/	16r	V7	=13	E#	M4/4
4E#\	4A#\	4d##/	16b#\	V7	=13	E#	M4/4
=14	=14	=14	=14	=14	=14	=14	=14
2E#\	2G##\	2e#/	8.g##/L	I	=14	E#	M4/4
2E#\	2G##\	2e#/	16e#/Jk	I	=14	E#	M4/4
2E#\	2G##\	2e#/	8.b#\L	I	=14	E#	M4/4
2E#\	2G##\	2e#/	32g##\LL	I	=14	E#	M4/4
2E#\	2G##\	2e#/	32b#\JJJ	I	=14	E#	M4/4
2r	2r	2r	8.ee#\L	I	=14	E#	M4/4
2r	2r	2r	16b#\Jk	I	=14	E#	M4/4
2r	2r	2r	8.gg##\L	I	=14	E#	M4/4
2r	2r	2r	16ff##\Jk	I	=14	E#	M4/4
=15	=15	=15	=15	=15	=15	=15	=15
2c##\	2c##/	[1g##	4ee#\	i	=15	c##	M4/4
2c##\	2c##/	[1g##	8.ee#\L	i	=15	c##	M4/4
2c##\	2c##/	[1g##	16ff##\Jk	i	=15	c##	M4/4
2G##\	2B##/	[1g##	4dd##\	V	=15	c##	M4/4
2G##\	2B##/	[1g##	8.gg##\L	V	=15	c##	M4/4
2G##\	2B##/	[1g##	16ee#\Jk	V	=15	c##	M4/4
=16	=16	=16	=16	=16	=16	=16	=16
2A#\	2c##/	4g##/]	4cc##\	VI	=16	c##	M4/4
	c##	M4/4
	c##	M4/4
	c##	M4/4
	c##	M4/4
	=17	=17
	!!linebreak:original	!!linebreak:original
	B#	*B#:
	B#	M4/4
	B#	M4/4
	B#	M4/4
	B#	M4/4
	B#	M4/4
	B#	M4/4
	B#	M4/4
	=18	=18
	B#	M4/4
	B#	M4/4
	B#	M4/4
	=19	=19
	B#	M4/4
	B#	M4/4
	B#	M4/4
	B#	M4/4
	*	*
	B#	M4/4
	B#	M4/4
	B#	M4/4
	B#	M4/4
	=20	=20
	B#	M4/4
	B#	M4/4
	B#	M4/4
	B#	M4/4
	B#	M4/4
	B#	M4/4
	B#	M4/4
	B#	M4/4
	=21	=21
	!!linebreak:original	!!linebreak:original
	B#	M4/4
	B#	M4/4
	B#	M4/4
	B#	M4/4
	B#	M4/4
	B#	M4/4
	B#	M4/4
	B#	M4/4
	=22	=22
	B#	M4/4
	B#	M4/4
	B#	M4/4
	B#	M4/4
	B#	M4/4
	B#	M4/4
	B#	M4/4
	B#	M4/4
	=23	=23
	B#	M4/4
	B#	M4/4
	B#	M4/4
	B#	M4/4
	B#	M4/4
	B#	M4/4
	=24	=24
	B#	M4/4
	B#	M4/4
	B#	M4/4
	B#	M4/4
	B#	M4/4
	B#	M4/4
	B#	M4/4
	B#	M4/4
	=25	=25
	!!pagebreak:original	!!pagebreak:original
	B#	M4/4
	B#	M4/4
	B#	M4/4
	B#	M4/4
	B#	M4/4
	B#	M4/4
	B#	M4/4
	B#	M4/4
	=26	=26
	B#	M4/4
	B#	M4/4
	B#	M4/4
	B#	M4/4
	B#	M4/4
	B#	M4/4
	=27	=27
	B#	M4/4
	B#	M4/4
	B#	M4/4
	B#	M4/4
	B#	M4/4
	=28	=28
	B#	M4/4
	B#	M4/4
	B#	M4/4
	B#	M4/4
	B#	M4/4
	=29	=29
	!!linebreak:original	!!linebreak:original
	*	*
	B#	M4/4
	B#	M4/4
	B#	M4/4
	B#	M4/4
	B#	M4/4
	B#	M4/4
	B#	M4/4
	B#	M4/4
	=30	=30
	B#	M4/4
	B#	M4/4
	B#	M4/4
	B#	M4/4
	B#	M4/4
	B#	M4/4
	=31	=31
	B#	M4/4
	B#	M4/4
	B#	M4/4
	B#	M4/4
	B#	M4/4
	B#	M4/4
	=32	=32
	B#	M4/4
	B#	M4/4
	B#	M4/4
	B#	M4/4
	B#	M4/4
	B#	M4/4
	B#	M4/4
	B#	M4/4
	B#	M4/4
	=33	=33
	!!linebreak:original	!!linebreak:original
	B#	M4/4
	B#	M4/4
	B#	M4/4
	B#	M4/4
	B#	M4/4
	B#	M4/4
	=34	=34
	B#	M4/4
	B#	M4/4
	B#	M4/4
	*-	*-
